static/img/ch2.0f59d097.svg

<?xml version="1.0" encoding="UTF-8"?>
<svg width="40px" height="40px" viewBox="0 0 40 40" version="1.1" xmlns="http://www.w3.org/2000/svg" xmlns:xlink="http://www.w3.org/1999/xlink">
    <!-- Generator: Sketch 52.1 (67048) - http://www.bohemiancoding.com/sketch -->
    <title>icon_顶部下拉_沧海_h</title>
    <desc>Created with Sketch.</desc>
    <defs>
        <linearGradient x1="50%" y1="0%" x2="50%" y2="100%" id="linearGradient-1">
            <stop stop-color="#4C74FF" offset="0%"></stop>
            <stop stop-color="#0085FF" offset="100%"></stop>
        </linearGradient>
        <linearGradient x1="50%" y1="100%" x2="50%" y2="0%" id="linearGradient-2">
            <stop stop-color="#00E3AE" offset="0%"></stop>
            <stop stop-color="#9BE15D" offset="100%"></stop>
        </linearGradient>
        <filter x="-112.5%" y="-138.5%" width="325.0%" height="376.9%" filterUnits="objectBoundingBox" id="filter-3">
            <feGaussianBlur stdDeviation="6" in="SourceGraphic"></feGaussianBlur>
        </filter>
    </defs>
    <g id="icon_顶部下拉_沧海_h" stroke="none" stroke-width="1" fill="none" fill-rule="evenodd">
        <g>
            <rect id="矩形" fill="#000000" opacity="0" x="0" y="0" width="40" height="40"></rect>
            <path d="M3.5,8.125 L3.5,28.875 L36.5,28.875 L36.5,8.125 L3.5,8.125 Z" id="路径" stroke="url(#linearGradient-1)" stroke-width="2"></path>
            <rect id="矩形" fill="url(#linearGradient-2)" opacity="0.3" x="13" y="32" width="14" height="2" rx="0.2"></rect>
            <path d="M12,15 L14,15 L14,25 L12,25 L12,15 Z M19,12 L21,12 L21,25 L19,25 L19,12 Z M26,19 L28,19 L28,25 L26,25 L26,19 Z" id="合并形状" fill="url(#linearGradient-2)"></path>
            <path d="M12,15 L14,15 L14,25 L12,25 L12,15 Z M19,12 L21,12 L21,25 L19,25 L19,12 Z M26,19 L28,19 L28,25 L26,25 L26,19 Z" id="合并形状" fill="url(#linearGradient-2)" filter="url(#filter-3)"></path>
        </g>
    </g>
</svg>

<svg width="40" height="40" xmlns="http://www.w3.org/2000/svg"><defs><linearGradient x1="50%" y1="0%" x2="50%" y2="100%" id="a"><stop stop-color="#4C74FF" offset="0%"/><stop stop-color="#0085FF" offset="100%"/></linearGradient><linearGradient x1="50%" y1="100%" x2="50%" y2="0%" id="b"><stop stop-color="#00E3AE" offset="0%"/><stop stop-color="#9BE15D" offset="100%"/></linearGradient><filter x="-112.5%" y="-138.5%" width="325%" height="376.9%" filterUnits="objectBoundingBox" id="c"><feGaussianBlur stdDeviation="6" in="SourceGraphic"/></filter></defs><g fill="none" fill-rule="evenodd"><path d="M3.5 8.125v20.75h33V8.125h-33z" stroke="url(#a)" stroke-width="2"/><rect fill="url(#b)" opacity=".3" x="13" y="32" width="14" height="2" rx=".2"/><path d="M12 15h2v10h-2V15zm7-3h2v13h-2V12zm7 7h2v6h-2v-6z" fill="url(#b)"/><path d="M12 15h2v10h-2V15zm7-3h2v13h-2V12zm7 7h2v6h-2v-6z" fill="url(#b)" filter="url(#c)"/></g></svg>
